!!!OTL@ENG: I Took Courage
!!!ONM: 165
**kern
*Imale
*clefF4
*k[f#]
*M3/4
*MM92
8d
=1
4d
4d
4B
=2
2d
8.B
16d
=3
4d
4d
4B
=4
8B
[8A
8A]
[8G
8.G]
16A
=5
4A
4d
4B
=6
8B
[8A
8A]
[8G
8.G]
16A
=7
4A
8B
8A
4G
=8
2G
8.D
16G
=9
4G
8A
8A
4G
=10
16A
[8.G
4G]
8.D
16D
=11
2.D
=12||
*M2/4
2D
=13
2r
=14||
*M3/4
16D
8.D
4d
4B
=15
2d
8.B
16d
=16
4d
4d
4B
=17
(8B
[8A
8A]
[8G
8.G]
16A
=18
4A
4d
4B
=19
(8B
[8A
8A]
[8G)
8G]
8A
=20
4A
(8B
8A)
4G
=21
4G
(8G
[8D
8.D])
16G
=22
4G
8A
8A
4G
=23
16A
[8.G
4G]
8.D
16D
=24
2.D
=25
4D
2r
==
*-
!!!CNT: Native American -- Sioux
!!!MRD: 1911/07//-1914///
!!!OCL: Frances Densmore
!!!YOR1: Teton Sioux Music, Bulletin 61,
!!!YOR2: Bureau of American Ethnology, Smithsonian Institution
!!!PPR: Government Printing Office
!!!PPP: Washington, D.C.
!!!PDT: 1918///
!!!ENC: Craig Stuart Sapp
!!!END: 2002/03/25/
!!!EED: Craig Stuart Sapp
!!!EEV: 2002/03/31/
!!!YEC: 2002 Craig Stuart Sapp
!!!YEM: Licence: (CC BY-NC-SA 4.0) https://creativecommons.org/licenses/by-nc-sa/4.0
!!!URL: https://raw.githubusercontent.com/craigsapp/densmore-teton-sioux/master/kern/sioux165.krn
!!!title: @{ONM}. <i>@{OTL}</i>
!!!AGN: War Song/Song of Personal Narrative Concerning War
!!!MPN@@SIO: Wangbli'-waha'chungka
!!!MPN@ENG: Eagle Shield
!!!TXO: Teton Sioux
!!!MLC: Standing Rock Reservation, South Dakota, United States of America
!!!ARL: 45.9/-100.7#
!!!catalog: Catalogue No. 508
!!!PPG: 395
!!!EFL: 170/245
